X:1
T:Barbary Allen
M:4/4
L:1/4
K:Ab
 A/2| B c e f| e d B3/2 A/2| B e e f| e/2- d B3/2 z/2| c/2c/2| c de/2-d/2 A|\
 BA/2-F/2 E E/2E/2| F A B/2A/2 F| E2 E| E/2E/2| F A B/2A/2 F| E2 E z/2||\
